img/svg/online-school/person.svg

<svg width="24" height="24" viewBox="0 0 24 24" fill="none" xmlns="http://www.w3.org/2000/svg">
<path d="M19.5 19.994H20.002L20 19.492C19.998 18.9953 19.7188 17.7577 18.6056 16.6444C17.5163 15.5552 15.5392 14.5 12 14.5C8.45924 14.5 6.48363 15.5553 5.39445 16.6444C4.28051 17.7584 4.00403 18.9957 4.00002 19.4899L3.99592 19.994H4.5H19.5ZM14.8284 10.3284C14.0783 11.0786 13.0609 11.5 12 11.5C10.9391 11.5 9.92172 11.0786 9.17157 10.3284C8.42143 9.57828 8 8.56087 8 7.5C8 6.43913 8.42143 5.42172 9.17157 4.67157C9.92172 3.92143 10.9391 3.5 12 3.5C13.0609 3.5 14.0783 3.92143 14.8284 4.67157C15.5786 5.42172 16 6.43913 16 7.5C16 8.56087 15.5786 9.57828 14.8284 10.3284ZM14.4749 9.97487C15.1312 9.3185 15.5 8.42826 15.5 7.5C15.5 6.57174 15.1312 5.6815 14.4749 5.02513C13.8185 4.36875 12.9283 4 12 4C11.0717 4 10.1815 4.36875 9.52513 5.02513C8.86875 5.6815 8.5 6.57174 8.5 7.5C8.5 8.42826 8.86875 9.3185 9.52513 9.97487C10.1815 10.6313 11.0717 11 12 11C12.9283 11 13.8185 10.6313 14.4749 9.97487ZM20.5 19.5C20.5 19.7875 20.4296 19.9699 20.3496 20.0898C20.2676 20.2129 20.1546 20.3012 20.0264 20.3653C19.8962 20.4304 19.7601 20.4654 19.6522 20.4834C19.5994 20.4922 19.5566 20.4964 19.5288 20.4983C19.5151 20.4993 19.5053 20.4997 19.5002 20.4999L19.4971 20.5L19.4983 20.5L19.4991 20.5H19.4969H4.50306H4.50091L4.5017 20.5L4.50288 20.5L4.49981 20.4999C4.49472 20.4997 4.48495 20.4993 4.47117 20.4983C4.44345 20.4964 4.40058 20.4922 4.34782 20.4834C4.23995 20.4654 4.10375 20.4304 3.97361 20.3653C3.84542 20.3012 3.73245 20.2129 3.6504 20.0898C3.57044 19.9699 3.5 19.7875 3.5 19.5C3.5 18.8784 3.82527 17.5068 5.04105 16.2911C6.24218 15.0899 8.35545 14 12 14C15.6446 14 17.7578 15.0899 18.9589 16.2911C20.1747 17.5068 20.5 18.8784 20.5 19.5Z" stroke="#FBFBFB"/>
</svg>

<svg width="24" height="24" fill="none" xmlns="http://www.w3.org/2000/svg"><path d="M19.5 19.994h.502L20 19.492c-.002-.497-.281-1.734-1.394-2.848C17.516 15.555 15.539 14.5 12 14.5c-3.54 0-5.516 1.055-6.606 2.144C4.281 17.758 4.004 18.996 4 19.49l-.004.504H19.5zm-4.672-9.666a4 4 0 11-5.656-5.656 4 4 0 015.656 5.656zm-.353-.353a3.5 3.5 0 10-4.95-4.95 3.5 3.5 0 004.95 4.95zM20.5 19.5c0 .288-.07.47-.15.59a.817.817 0 01-.324.275 1.344 1.344 0 01-.526.135h-.003.002H4.501h.002H4.5c-.005 0-.015 0-.029-.002a1.344 1.344 0 01-.498-.133.817.817 0 01-.323-.275c-.08-.12-.15-.302-.15-.59 0-.622.325-1.993 1.541-3.209C6.242 15.09 8.355 14 12 14c3.645 0 5.758 1.09 6.959 2.291 1.216 1.216 1.541 2.587 1.541 3.209z" stroke="#FBFBFB"/></svg>
